X:0761
M:C
L:1/16
Q:1/4=120
K:D
fg|a2f2`d2ef g2e2`f2d2|g2ba gfed c2(e2e2) \
fg|a2f2`d2ef g2e2`f2d2|g2ab abag f2(d2d2)
fg|a2f2`d2ef g2e2`f2d2|g2ba gfed c2(e2e2) \
fg|agfe fedc dcBA BAGF|GABG ABAG F2`D2D2|]

